// iannis xenakis metastasis intro sort of texture

{[Mix.fill(128, {SinOsc.ar(Line.kr(rrand(20, 20000), rrand(20, 20000), 60, 0.3, 0, 2))} * 0.03), Mix.fill(128, {SinOsc.ar(Line.kr(rrand(20, 20000), rrand(20, 20000), 60, 0.3, 0, 2))} * 0.03)]*0.4}.scope

