(
{Pulse.ar(33, SinOsc.kr([0.322, 0.333]), 0.3)}.scope;
{Saw.ar(33, 0, 0.3)}.scope;
{LFSaw.ar(33, 0, 0.3)}.scope;

{Pulse.ar(66, SinOsc.kr([0.322, 0.333]), 0.03)}.scope;
{Saw.ar(66, 0, 0.03)}.scope;
{LFSaw.ar(66, 0, 0.03)}.scope;

{Pulse.ar(99, SinOsc.kr([0.322, 0.333]), 0.3)}.scope;
{Saw.ar(99, 0, 0.3)}.scope;
{LFSaw.ar(99, 0, 0.3)}.scope;


{Pulse.ar(55, SinOsc.kr([0.322, 0.333]), 0.03)}.scope;
{Saw.ar(55, 0, 0.03)}.scope;
{LFSaw.ar(55, 0, 0.03)}.scope;

{Pulse.ar(111, SinOsc.kr([0.322, 0.333]), 0.03)}.scope;
{Saw.ar(111, 0, 0.03)}.scope;
{LFSaw.ar(111, 0, 0.03)}.scope;

{Pulse.ar(88, SinOsc.kr([0.322, 0.333]), 0.03)}.scope;
{Saw.ar(88, 0, 0.03)}.scope;
{LFSaw.ar(88, 0, 0.03)}.scope;

{Pulse.ar(77, SinOsc.kr([0.322, 0.333]), 0.03)}.scope;
{Saw.ar(77, 0, 0.03)}.scope;
{LFSaw.ar(77, 0, 0.03)}.scope;

{Pulse.ar(155, SinOsc.kr([0.322, 0.333]), 0.03)}.scope;
{Saw.ar(155, 0, 0.03)}.scope;
{LFSaw.ar(155, 0, 0.03)}.scope;

{Pulse.ar(322, SinOsc.kr([0.322, 0.333]), 0.03)}.scope;
{Saw.ar(322, 0, 0.03)}.scope;
{LFSaw.ar(322, 0, 0.03)}.scope;

{Pulse.ar(333, SinOsc.kr([0.322, 0.333]), 0.03)}.scope;
{Saw.ar(333, 0, 0.03)}.scope;
{LFSaw.ar(333, 0, 0.03)}.scope;

{Pulse.ar(303, SinOsc.kr([0.322, 0.333]), 0.03)}.scope;
{Saw.ar(303, 0, 0.03)}.scope;
{LFSaw.ar(303, 0, 0.03)}.scope;

{Pulse.ar(505, SinOsc.kr([0.322, 0.333]), 0.03)}.scope;
{Saw.ar(505, 0, 0.03)}.scope;
{LFSaw.ar(505, 0, 0.03)}.scope;

{Pulse.ar(555, SinOsc.kr([0.322, 0.333]), 0.03)}.scope;
{Saw.ar(555, 0, 0.03)}.scope;
{LFSaw.ar(555, 0, 0.03)}.scope;

{Pulse.ar(606, SinOsc.kr([0.322, 0.333]), 0.03)}.scope;
{Saw.ar(606, 0, 0.03)}.scope;
{LFSaw.ar(606, 0, 0.03)}.scope;

{Pulse.ar(666, SinOsc.kr([0.322, 0.333]), 0.03)}.scope;
{Saw.ar(666, 0, 0.03)}.scope;
{LFSaw.ar(666, 0, 0.03)}.scope;

{Pulse.ar(707, SinOsc.kr([0.322, 0.333]), 0.03)}.scope;
{Saw.ar(707, 0, 0.03)}.scope;
{LFSaw.ar(707, 0, 0.03)}.scope;

{Pulse.ar(777, SinOsc.kr([0.322, 0.333]), 0.03)}.scope;
{Saw.ar(777, 0, 0.03)}.scope;
{LFSaw.ar(777, 0, 0.03)}.scope;

{Pulse.ar(808, SinOsc.kr([0.322, 0.333]), 0.03)}.scope;
{Saw.ar(808, 0, 0.03)}.scope;
{LFSaw.ar(808, 0, 0.03)}.scope;

{Pulse.ar(888, SinOsc.kr([0.322, 0.333]), 0.03)}.scope;
{Saw.ar(888, 0, 0.03)}.scope;
{LFSaw.ar(888, 0, 0.03)}.scope;

{Pulse.ar(909, SinOsc.kr([0.322, 0.333]), 0.03)}.scope;
{Saw.ar(909, 0, 0.03)}.scope;
{LFSaw.ar(909, 0, 0.03)}.scope;

{Pulse.ar(999, SinOsc.kr([0.322, 0.333]), 0.03)}.scope;
{Saw.ar(999, 0, 0.03)}.scope;
{LFSaw.ar(999, 0, 0.03)}.scope;

{Pulse.ar(1500, SinOsc.kr([0.322, 0.333]), 0.03)}.scope;
{Saw.ar(1500, 0, 0.03)}.scope;
{LFSaw.ar(1500, 0, 0.03)}.scope;

{Pulse.ar(1505, SinOsc.kr([0.322, 0.333]), 0.03)}.scope;
{Saw.ar(1505, 0, 0.03)}.scope;
{LFSaw.ar(1505, 0, 0.03)}.scope;

{Pulse.ar(1555, SinOsc.kr([0.322, 0.333]), 0.03)}.scope;
{Saw.ar(1555, 0, 0.03)}.scope;
{LFSaw.ar(1555, 0, 0.03)}.scope;

{Pulse.ar(3222, SinOsc.kr([0.322, 0.333]), 0.03)}.scope;
{Saw.ar(3222, 0, 0.03)}.scope;
{LFSaw.ar(3222, 0, 0.03)}.scope;

{Pulse.ar(3200, SinOsc.kr([0.322, 0.333]), 0.03)}.scope;
{Saw.ar(3200, 0, 0.03)}.scope;
{LFSaw.ar(3200, 0, 0.03)}.scope;

{Pulse.ar(3202, SinOsc.kr([0.322, 0.333]), 0.03)}.scope;
{Saw.ar(3202, 0, 0.03)}.scope;
{LFSaw.ar(3202, 0, 0.03)}.scope;

{Pulse.ar(5555, SinOsc.kr([0.322, 0.333]), 0.03)}.scope;
{Saw.ar(5555, 0, 0.03)}.scope;
{LFSaw.ar(5555, 0, 0.03)}.scope;

{Pulse.ar(5050, SinOsc.kr([0.322, 0.333]), 0.03)}.scope;
{Saw.ar(5050, 0, 0.03)}.scope;
{LFSaw.ar(5050, 0, 0.03)}.scope;

{Pulse.ar(5055, SinOsc.kr([0.322, 0.333]), 0.03)}.scope;
{Saw.ar(5055, 0, 0.03)}.scope;
{LFSaw.ar(5055, 0, 0.03)}.scope;

{Pulse.ar(5550, SinOsc.kr([0.322, 0.333]), 0.03)}.scope;
{Saw.ar(5550, 0, 0.03)}.scope;
{LFSaw.ar(5550, 0, 0.03)}.scope;

{Pulse.ar(10000, SinOsc.kr([0.322, 0.333]), 0.03)}.scope;
{Saw.ar(10000, 0, 0.03)}.scope;
{LFSaw.ar(10000, 0, 0.03)}.scope;

{Pulse.ar(11000, SinOsc.kr([0.322, 0.333]), 0.03)}.scope;
{Saw.ar(11000, 0, 0.03)}.scope;
{LFSaw.ar(11000, 0, 0.03)}.scope;

{Pulse.ar(10101, SinOsc.kr([0.322, 0.333]), 0.03)}.scope;
{Saw.ar(10101, 0, 0.03)}.scope;
{LFSaw.ar(10101, 0, 0.03)}.scope;

{Pulse.ar(10111, SinOsc.kr([0.322, 0.333]), 0.03)}.scope;
{Saw.ar(10111, 0, 0.03)}.scope;
{LFSaw.ar(10111, 0, 0.03)}.scope;

{Pulse.ar(10011, SinOsc.kr([0.322, 0.333]), 0.03)}.scope;
{Saw.ar(10011, 0, 0.03)}.scope;
{LFSaw.ar(10011, 0, 0.03)}.scope;

{Pulse.ar(15000, SinOsc.kr([0.322, 0.333]), 0.03)}.scope;
{Saw.ar(15000, 0, 0.03)}.scope;
{LFSaw.ar(15000, 0, 0.03)}.scope;

{Pulse.ar(15050, SinOsc.kr([0.322, 0.333]), 0.03)}.scope;
{Saw.ar(15050, 0, 0.03)}.scope;
{LFSaw.ar(15050, 0, 0.03)}.scope;

{Pulse.ar(15055, SinOsc.kr([0.322, 0.333]), 0.03)}.scope;
{Saw.ar(15055, 0, 0.03)}.scope;
{LFSaw.ar(15055, 0, 0.03)}.scope;


)