(
{Pulse.ar([60, 60]*0.5, SinOsc.kr(0.0123, 0, 1.5))}.scope;
{Pulse.ar([60, 60], SinOsc.kr(0.0134, 0, 1.5))}.scope;
{Pulse.ar([60, 60]*4, SinOsc.kr(0.0164, 0, 1.5))}.scope;
{Pulse.ar([60, 60]*8, SinOsc.kr(0.0102, 0, 1.5))}.scope;
{Pulse.ar([60, 60]*16, SinOsc.kr(0.0133, 0, 1.5))}.scope;
{Pulse.ar([60, 60]*32, SinOsc.kr(0.0112, 0, 1.5))}.scope;
{Pulse.ar([60, 60]*64, SinOsc.kr(0.0132, 0, 1.5))}.scope;
)