(
{LFSaw.ar(LFDNoise0.kr(0.1)*66+33)*[ChaosGen.allSubclasses.choose.ar(LFDNoise1.kr(MouseX.kr(1, 30))*30, ChaosGen.allSubclasses.choose.ar(LFDNoise1.kr(MouseX.kr(1, 30))*30))]*1}.scope;
{LFSaw.ar(LFDNoise0.kr(0.1)*6666+3333)*[ChaosGen.allSubclasses.choose.ar(LFDNoise1.kr(MouseX.kr(1, 30))*30, ChaosGen.allSubclasses.choose.ar(LFDNoise1.kr(MouseX.kr(1, 30))*30))]*1}.scope;
// )