{var sourceSignal1, sourceSignal2, ampModulationSignal1, ampModulationSignal2; ampModulationSignal1 = SinOsc.kr(SinOsc.kr(0 * 0)); ampModulationSignal2 = SinOsc.kr(SinOsc.kr(0 * 0)); sourceSignal1 = Saw.ar(0 * 0 * 0, mul: SinOsc.kr(ampModulationSignal1)); sourceSignal2 = Saw.ar(0 * 0 * 0 * 0, mul: SinOsc.kr(ampModulationSignal2)); Pan2.ar(sourceSignal1+sourceSignal2, 0, 0);}.scope;