{var sourceSignal1, sourceSignal2, ampModulationSignal1, ampModulationSignal2; ampModulationSignal1 = SinOsc.kr(SinOsc.kr(1.5728 * 1.5728)); ampModulationSignal2 = SinOsc.kr(SinOsc.kr(1.5728 * 2)); sourceSignal1 = Saw.ar(1 * 2 * 3, mul: SinOsc.kr(ampModulationSignal1)); sourceSignal2 = Saw.ar(11 * 1.5728 * 1.3 * 1, mul: SinOsc.kr(ampModulationSignal2)); Pan2.ar(sourceSignal1+sourceSignal2, 0, 0);}.scope;