{var sourceSignal = Mix.fill(32, {[Saw, Pulse].choose.ar(freq: [5, 5, 6, 6, 10, 0, 13, 10, 13, 11].choose, , Width:, [1.5728, 1.5728, 1.5728, 2, 5, 7, 1, 5, 1, 8].choose, mul: [1.5728, 1.5728, 1.5728, 2, 5, 7, 1, 5, 1, 8].choose))}; Pan2.ar(sourceSignal, 0, 1) * 0.03;}.scope;