{var sourceSignal = Mix.fill(32, {[Saw, Pulse].choose.ar(freq: [5, 13, 6, 1, 6, 6, 13, 11, 5, 10].choose, , Width:, [1.5728, 1.5728, 1, 2, 2, 2, 1, 8, 1.5728, 5].choose, mul: [1.5728, 1.5728, 1, 2, 2, 2, 1, 8, 1.5728, 5].choose))}; Pan2.ar(sourceSignal, 0, 1) * 0.03;}.scope;