{var sourceSignal = Mix.fill(32, {[Saw, Pulse].choose.ar(freq: [5, 13, 6, 6, 10, 6, 6, 6, 11, 11].choose, , Width:, [1.5728, 1.5728, 1, 2, 5, 2, 2, 2, 8, 8].choose, mul: [1.5728, 1.5728, 1, 2, 5, 2, 2, 2, 8, 8].choose))}; Pan2.ar(sourceSignal, 0, 1) * 0.03;}.scope;