{var sourceSignal = Mix.fill(32, {[Saw, Pulse].choose.ar(freq: [5, 5, 13, 1, 6, 6, 11, 0, 0, 1].choose, , Width:, [1.5728, 1.5728, 1.5728, 1, 2, 2, 8, 7, 7, 1.1].choose, mul: [1.5728, 1.5728, 1.5728, 1, 2, 2, 8, 7, 7, 1.1].choose))}; Pan2.ar(sourceSignal, 0, 1) * 0.03;}.scope;