{var sourceSignal = Mix.fill(32, {[Saw, Pulse].choose.ar(freq: [5, 13, 6, 1, 13, 1, 11, 6, 13, 11].choose, , Width:, [1.5728, 1.5728, 1, 2, 1, 3, 8, 2, 1, 8].choose, mul: [1.5728, 1.5728, 1, 2, 1, 3, 8, 2, 1, 8].choose))}; Pan2.ar(sourceSignal, 0, 1) * 0.03;}.scope;