{var sourceSignal = Mix.fill(32, {[Saw, Pulse].choose.ar(freq: [5, 5, 6, 13, 6, 1, 0, 1, 11, 10].choose, , Width:, [1.5728, 1.5728, 1.5728, 2, 2, 3, 7, 3, 8, 5].choose, mul: [1.5728, 1.5728, 1.5728, 2, 2, 3, 7, 3, 8, 5].choose))}; Pan2.ar(sourceSignal, 0, 1) * 0.03;}.scope;