{var sourceSignal = Mix.fill(32, {[Saw, Pulse].choose.ar(freq: [5, 13, 5, 13, 13, 0, 0, 10, 8, 4].choose, , Width:, [1.5728, 1.5728, 1, 1.5728, 1, 7, 7, 5, 1.3, 2.1].choose, mul: [1.5728, 1.5728, 1, 1.5728, 1, 7, 7, 5, 1.3, 2.1].choose))}; Pan2.ar(sourceSignal, 0, 1) * 0.03;}.scope;