{var sourceSignal = Mix.fill(32, {[Saw, Pulse].choose.ar(freq: [5, 13, 6, 6, 1, 5, 1, 6, 11, 8].choose, , Width:, [1.5728, 1.5728, 1, 2, 3, 1.5728, 3, 2, 8, 1.3].choose, mul: [1.5728, 1.5728, 1, 2, 3, 1.5728, 3, 2, 8, 1.3].choose))}; Pan2.ar(sourceSignal, 0, 1) * 0.03;}.scope;