{var sourceSignal = Mix.fill(32, {[Saw, Pulse].choose.ar(freq: [5, 13, 6, 1, 1, 10, 6, 1, 1, 0].choose, , Width:, [1.5728, 1.5728, 1, 2, 3, 5, 2, 1.1, 3, 7].choose, mul: [1.5728, 1.5728, 1, 2, 3, 5, 2, 1.1, 3, 7].choose))}; Pan2.ar(sourceSignal, 0, 1) * 0.03;}.scope;