{var sourceSignal = Mix.fill(32, {[Saw, Pulse].choose.ar(freq: [5, 13, 13, 6, 1, 5, 10, 1, 6, 1].choose, , Width:, [1.5728, 1.5728, 1, 1, 3, 1.5728, 5, 3, 2, 3].choose, mul: [1.5728, 1.5728, 1, 1, 3, 1.5728, 5, 3, 2, 3].choose))}; Pan2.ar(sourceSignal, 0, 1) * 0.03;}.scope;