{var sourceSignal = Mix.fill(32, {[Saw, Pulse].choose.ar(freq: [5, 13, 5, 13, 1, 10, 1, 0, 10, 0].choose, , Width:, [1.5728, 1.5728, 1, 1.5728, 3, 5, 3, 7, 5, 7].choose, mul: [1.5728, 1.5728, 1, 1.5728, 3, 5, 3, 7, 5, 7].choose))}; Pan2.ar(sourceSignal, 0, 1) * 0.03;}.scope;