{var sourceSignal = Mix.fill(32, {[Saw, Pulse].choose.ar(freq: [5, 5, 6, 13, 1, 13, 11, 10, 0, 10].choose, , Width:, [1.5728, 1.5728, 1.5728, 2, 3, 1, 8, 5, 7, 5].choose, mul: [1.5728, 1.5728, 1.5728, 2, 3, 1, 8, 5, 7, 5].choose))}; Pan2.ar(sourceSignal, 0, 1) * 0.03;}.scope;