{var sourceSignal = Mix.fill(32, {[Saw, Pulse].choose.ar(freq: [5, 13, 5, 5, 10, 0, 1, 11, 10, 8].choose, , Width:, [1.5728, 1.5728, 1, 1.5728, 5, 7, 3, 8, 5, 1.3].choose, mul: [1.5728, 1.5728, 1, 1.5728, 5, 7, 3, 8, 5, 1.3].choose))}; Pan2.ar(sourceSignal, 0, 1) * 0.03;}.scope;