{var sourceSignal = Mix.fill(32, {[Saw, Pulse].choose.ar(freq: [5, 13, 13, 1, 6, 0, 1, 1, 11, 5].choose, , Width:, [1.5728, 1.5728, 1, 1, 2, 7, 3, 1.1, 8, 1.5728].choose, mul: [1.5728, 1.5728, 1, 1, 2, 7, 3, 1.1, 8, 1.5728].choose))}; Pan2.ar(sourceSignal, 0, 1) * 0.03;}.scope;