{var sourceSignal = Mix.fill(32, {[Saw, Pulse].choose.ar(freq: [5, 5, 13, 6, 13, 10, 13, 13, 10, 1].choose, , Width:, [1.5728, 1.5728, 1.5728, 1, 1, 5, 1, 1, 5, 3].choose, mul: [1.5728, 1.5728, 1.5728, 1, 1, 5, 1, 1, 5, 3].choose))}; Pan2.ar(sourceSignal, 0, 1) * 0.03;}.scope;