{var sourceSignal = Mix.fill(32, {[Saw, Pulse].choose.ar(freq: [5, 13, 6, 13, 13, 10, 11, 5, 11, 6].choose, , Width:, [1.5728, 1.5728, 1, 2, 1, 5, 8, 1.5728, 8, 2].choose, mul: [1.5728, 1.5728, 1, 2, 1, 5, 8, 1.5728, 8, 2].choose))}; Pan2.ar(sourceSignal, 0, 1) * 0.03;}.scope;