{var sourceSignal = Mix.fill(32, {[Saw, Pulse].choose.ar(freq: [5, 13, 13, 5, 1, 5, 11, 1, 1, 11].choose, , Width:, [1.5728, 1.5728, 1, 1, 3, 1.5728, 8, 3, 1.1, 8].choose, mul: [1.5728, 1.5728, 1, 1, 3, 1.5728, 8, 3, 1.1, 8].choose))}; Pan2.ar(sourceSignal, 0, 1) * 0.03;}.scope;