{var sourceSignal = Mix.fill(32, {[Saw, Pulse].choose.ar(freq: [5, 5, 6, 6, 6, 13, 11, 0, 8, 10].choose, , Width:, [1.5728, 1.5728, 1.5728, 2, 2, 1, 8, 7, 1.3, 5].choose, mul: [1.5728, 1.5728, 1.5728, 2, 2, 1, 8, 7, 1.3, 5].choose))}; Pan2.ar(sourceSignal, 0, 1) * 0.03;}.scope;