{var sourceSignal = Mix.fill(32, {[Saw, Pulse].choose.ar(freq: [5, 13, 13, 6, 10, 1, 11, 10, 8, 5].choose, , Width:, [1.5728, 1.5728, 1, 1, 5, 3, 8, 5, 1.3, 1.5728].choose, mul: [1.5728, 1.5728, 1, 1, 5, 3, 8, 5, 1.3, 1.5728].choose))}; Pan2.ar(sourceSignal, 0, 1) * 0.03;}.scope;