{var sourceSignal = Mix.fill(32, {[Saw, Pulse].choose.ar(freq: [5, 5, 6, 5, 6, 10, 1, 6, 8, 13].choose, , Width:, [1.5728, 1.5728, 1.5728, 2, 2, 5, 3, 2, 1.3, 1].choose, mul: [1.5728, 1.5728, 1.5728, 2, 2, 5, 3, 2, 1.3, 1].choose))}; Pan2.ar(sourceSignal, 0, 1) * 0.03;}.scope;