{var sourceSignal = Mix.fill(32, {[Saw, Pulse].choose.ar(freq: [5, 13, 5, 1, 6, 13, 11, 13, 13, 10].choose, , Width:, [1.5728, 1.5728, 1, 1.5728, 2, 1, 8, 1, 1, 5].choose, mul: [1.5728, 1.5728, 1, 1.5728, 2, 1, 8, 1, 1, 5].choose))}; Pan2.ar(sourceSignal, 0, 1) * 0.03;}.scope;