{var sourceSignal = Mix.fill(32, {[Saw, Pulse].choose.ar(freq: [5, 5, 13, 1, 10, 6, 11, 11, 6, 6].choose, , Width:, [1.5728, 1.5728, 1.5728, 1, 5, 2, 8, 8, 2, 2].choose, mul: [1.5728, 1.5728, 1.5728, 1, 5, 2, 8, 8, 2, 2].choose))}; Pan2.ar(sourceSignal, 0, 1) * 0.03;}.scope;