{var sourceSignal = Mix.fill(32, {[Saw, Pulse].choose.ar(freq: [5, 13, 5, 6, 10, 1, 6, 6, 11, 4].choose, , Width:, [1.5728, 1.5728, 1, 1.5728, 5, 3, 2, 2, 8, 2.1].choose, mul: [1.5728, 1.5728, 1, 1.5728, 5, 3, 2, 2, 8, 2.1].choose))}; Pan2.ar(sourceSignal, 0, 1) * 0.03;}.scope;