{var sourceSignal = Mix.fill(32, {[Saw, Pulse].choose.ar(freq: [5, 13, 5, 6, 10, 10, 0, 1, 0, 13].choose, , Width:, [1.5728, 1.5728, 1, 1.5728, 5, 5, 7, 3, 7, 1].choose, mul: [1.5728, 1.5728, 1, 1.5728, 5, 5, 7, 3, 7, 1].choose))}; Pan2.ar(sourceSignal, 0, 1) * 0.03;}.scope;