{var sourceSignal = Mix.fill(32, {[Saw, Pulse].choose.ar(freq: [5, 13, 6, 1, 10, 5, 0, 6, 13, 1].choose, , Width:, [1.5728, 1.5728, 1, 2, 5, 1.5728, 7, 2, 1, 3].choose, mul: [1.5728, 1.5728, 1, 2, 5, 1.5728, 7, 2, 1, 3].choose))}; Pan2.ar(sourceSignal, 0, 1) * 0.03;}.scope;