{var sourceSignal = Mix.fill(32, {[Saw, Pulse].choose.ar(freq: [5, 5, 13, 1, 10, 13, 0, 13, 8, 6].choose, , Width:, [1.5728, 1.5728, 1.5728, 1, 5, 1, 7, 1, 1.3, 2].choose, mul: [1.5728, 1.5728, 1.5728, 1, 5, 1, 7, 1, 1.3, 2].choose))}; Pan2.ar(sourceSignal, 0, 1) * 0.03;}.scope;