{var sourceSignal = Mix.fill(32, {[Saw, Pulse].choose.ar(freq: [5, 13, 13, 1, 5, 0, 11, 13, 0, 10].choose, , Width:, [1.5728, 1.5728, 1, 1, 1.5728, 7, 8, 1, 7, 5].choose, mul: [1.5728, 1.5728, 1, 1, 1.5728, 7, 8, 1, 7, 5].choose))}; Pan2.ar(sourceSignal, 0, 1) * 0.03;}.scope;