{var sourceSignal = Mix.fill(32, {[Saw, Pulse].choose.ar(freq: [5, 5, 6, 13, 6, 1, 6, 6, 0, 13].choose, , Width:, [1.5728, 1.5728, 1.5728, 2, 2, 3, 2, 2, 7, 1].choose, mul: [1.5728, 1.5728, 1.5728, 2, 2, 3, 2, 2, 7, 1].choose))}; Pan2.ar(sourceSignal, 0, 1) * 0.03;}.scope;