{var sourceSignal = Mix.fill(32, {[Saw, Pulse].choose.ar(freq: [5, 13, 5, 6, 10, 0, 13, 11, 13, 0].choose, , Width:, [1.5728, 1.5728, 1, 1.5728, 5, 7, 1, 8, 1, 7].choose, mul: [1.5728, 1.5728, 1, 1.5728, 5, 7, 1, 8, 1, 7].choose))}; Pan2.ar(sourceSignal, 0, 1) * 0.03;}.scope;