{var sourceSignal = Mix.fill(32, {[Saw, Pulse].choose.ar(freq: [5, 13, 13, 13, 13, 0, 6, 10, 11, 10].choose, , Width:, [1.5728, 1.5728, 1, 1, 1, 7, 2, 5, 8, 5].choose, mul: [1.5728, 1.5728, 1, 1, 1, 7, 2, 5, 8, 5].choose))}; Pan2.ar(sourceSignal, 0, 1) * 0.03;}.scope;