{var sourceSignal = Mix.fill(32, {[Saw, Pulse].choose.ar(freq: [5, 5, 6, 1, 13, 13, 10, 0, 13, 4].choose, , Width:, [1.5728, 1.5728, 1.5728, 2, 1, 1, 5, 7, 1, 2.1].choose, mul: [1.5728, 1.5728, 1.5728, 2, 1, 1, 5, 7, 1, 2.1].choose))}; Pan2.ar(sourceSignal, 0, 1) * 0.03;}.scope;