{var sourceSignal = Mix.fill(32, {[Saw, Pulse].choose.ar(freq: [5, 13, 13, 6, 13, 13, 0, 1, 11, 0].choose, , Width:, [1.5728, 1.5728, 1, 1, 1, 1, 7, 1.1, 8, 7].choose, mul: [1.5728, 1.5728, 1, 1, 1, 1, 7, 1.1, 8, 7].choose))}; Pan2.ar(sourceSignal, 0, 1) * 0.03;}.scope;