{var sourceSignal = Mix.fill(32, {[Saw, Pulse].choose.ar(freq: [5, 5, 6, 5, 10, 0, 1, 1, 6, 6].choose, , Width:, [1.5728, 1.5728, 1.5728, 2, 5, 7, 3, 3, 2, 2].choose, mul: [1.5728, 1.5728, 1.5728, 2, 5, 7, 3, 3, 2, 2].choose))}; Pan2.ar(sourceSignal, 0, 1) * 0.03;}.scope;