{var sourceSignal = Mix.fill(32, {[Saw, Pulse].choose.ar(freq: [5, 5, 6, 1, 1, 6, 11, 6, 1, 8].choose, , Width:, [1.5728, 1.5728, 1.5728, 2, 3, 2, 8, 2, 1.1, 1.3].choose, mul: [1.5728, 1.5728, 1.5728, 2, 3, 2, 8, 2, 1.1, 1.3].choose))}; Pan2.ar(sourceSignal, 0, 1) * 0.03;}.scope;