{var sourceSignal = Mix.fill(32, {[Saw, Pulse].choose.ar(freq: [5, 13, 13, 5, 5, 10, 10, 13, 10, 0].choose, , Width:, [1.5728, 1.5728, 1, 1, 1.5728, 5, 5, 1, 5, 7].choose, mul: [1.5728, 1.5728, 1, 1, 1.5728, 5, 5, 1, 5, 7].choose))}; Pan2.ar(sourceSignal, 0, 1) * 0.03;}.scope;