{var sourceSignal = Mix.fill(32, {[Saw, Pulse].choose.ar(freq: [5, 13, 5, 13, 6, 0, 11, 10, 10, 10].choose, , Width:, [1.5728, 1.5728, 1, 1.5728, 2, 7, 8, 5, 5, 5].choose, mul: [1.5728, 1.5728, 1, 1.5728, 2, 7, 8, 5, 5, 5].choose))}; Pan2.ar(sourceSignal, 0, 1) * 0.03;}.scope;