{var sourceSignal = Mix.fill(32, {[Saw, Pulse].choose.ar(freq: [5, 13, 13, 5, 1, 1, 0, 11, 11, 5].choose, , Width:, [1.5728, 1.5728, 1, 1, 3, 3, 7, 8, 8, 1.5728].choose, mul: [1.5728, 1.5728, 1, 1, 3, 3, 7, 8, 8, 1.5728].choose))}; Pan2.ar(sourceSignal, 0, 1) * 0.03;}.scope;