{var sourceSignal = Mix.fill(32, {[Saw, Pulse].choose.ar(freq: [5, 13, 6, 1, 1, 5, 0, 10, 10, 11].choose, , Width:, [1.5728, 1.5728, 1, 2, 3, 1.5728, 7, 5, 5, 8].choose, mul: [1.5728, 1.5728, 1, 2, 3, 1.5728, 7, 5, 5, 8].choose))}; Pan2.ar(sourceSignal, 0, 1) * 0.03;}.scope;