{var sourceSignal = Mix.fill(32, {[Saw, Pulse].choose.ar(freq: [5, 13, 13, 5, 1, 5, 0, 10, 8, 1].choose, , Width:, [1.5728, 1.5728, 1, 1, 3, 1.5728, 7, 5, 1.3, 3].choose, mul: [1.5728, 1.5728, 1, 1, 3, 1.5728, 7, 5, 1.3, 3].choose))}; Pan2.ar(sourceSignal, 0, 1) * 0.03;}.scope;