{var sourceSignal = Mix.fill(32, {[Saw, Pulse].choose.ar(freq: [5, 13, 5, 1, 6, 10, 1, 0, 8, 11].choose, , Width:, [1.5728, 1.5728, 1, 1.5728, 2, 5, 3, 7, 1.3, 8].choose, mul: [1.5728, 1.5728, 1, 1.5728, 2, 5, 3, 7, 1.3, 8].choose))}; Pan2.ar(sourceSignal, 0, 1) * 0.03;}.scope;