{var sourceSignal = Mix.fill(32, {[Saw, Pulse].choose.ar(freq: [5, 13, 6, 1, 10, 1, 6, 11, 6, 4].choose, , Width:, [1.5728, 1.5728, 1, 2, 5, 3, 2, 8, 2, 2.1].choose, mul: [1.5728, 1.5728, 1, 2, 5, 3, 2, 8, 2, 2.1].choose))}; Pan2.ar(sourceSignal, 0, 1) * 0.03;}.scope;