{var sourceSignal = Mix.fill(32, {[Saw, Pulse].choose.ar(freq: [5, 5, 6, 6, 1, 0, 0, 11, 10, 1].choose, , Width:, [1.5728, 1.5728, 1.5728, 2, 3, 7, 7, 8, 5, 3].choose, mul: [1.5728, 1.5728, 1.5728, 2, 3, 7, 7, 8, 5, 3].choose))}; Pan2.ar(sourceSignal, 0, 1) * 0.03;}.scope;