{var sourceSignal = Mix.fill(32, {[Saw, Pulse].choose.ar(freq: [5, 13, 6, 1, 5, 0, 1, 1, 1, 6].choose, , Width:, [1.5728, 1.5728, 1, 2, 1.5728, 7, 3, 1.1, 1.1, 2].choose, mul: [1.5728, 1.5728, 1, 2, 1.5728, 7, 3, 1.1, 1.1, 2].choose))}; Pan2.ar(sourceSignal, 0, 1) * 0.03;}.scope;