{var sourceSignal = Mix.fill(32, {[Saw, Pulse].choose.ar(freq: [5, 13, 6, 6, 13, 6, 5, 0, 10, 6].choose, , Width:, [1.5728, 1.5728, 1, 2, 1, 2, 1.5728, 7, 5, 2].choose, mul: [1.5728, 1.5728, 1, 2, 1, 2, 1.5728, 7, 5, 2].choose))}; Pan2.ar(sourceSignal, 0, 1) * 0.03;}.scope;