{var sourceSignal = Mix.fill(32, {[Saw, Pulse].choose.ar(freq: [5, 5, 13, 6, 13, 13, 11, 10, 11, 1].choose, , Width:, [1.5728, 1.5728, 1.5728, 1, 1, 1, 8, 5, 8, 1.1].choose, mul: [1.5728, 1.5728, 1.5728, 1, 1, 1, 8, 5, 8, 1.1].choose))}; Pan2.ar(sourceSignal, 0, 1) * 0.03;}.scope;