{var sourceSignal = Mix.fill(32, {[Saw, Pulse].choose.ar(freq: [5, 5, 6, 5, 13, 1, 13, 11, 6, 0].choose, , Width:, [1.5728, 1.5728, 1.5728, 2, 1, 3, 1, 8, 2, 7].choose, mul: [1.5728, 1.5728, 1.5728, 2, 1, 3, 1, 8, 2, 7].choose))}; Pan2.ar(sourceSignal, 0, 1) * 0.03;}.scope;