{var sourceSignal = Mix.fill(32, {[Saw, Pulse].choose.ar(freq: [5, 5, 6, 13, 13, 6, 11, 6, 11, 11].choose, , Width:, [1.5728, 1.5728, 1.5728, 2, 1, 2, 8, 2, 8, 8].choose, mul: [1.5728, 1.5728, 1.5728, 2, 1, 2, 8, 2, 8, 8].choose))}; Pan2.ar(sourceSignal, 0, 1) * 0.03;}.scope;