{var sourceSignal = Mix.fill(32, {[Saw, Pulse].choose.ar(freq: [5, 5, 6, 5, 13, 13, 0, 11, 10, 13].choose, , Width:, [1.5728, 1.5728, 1.5728, 2, 1, 1, 7, 8, 5, 1].choose, mul: [1.5728, 1.5728, 1.5728, 2, 1, 1, 7, 8, 5, 1].choose))}; Pan2.ar(sourceSignal, 0, 1) * 0.03;}.scope;