{var sourceSignal = Mix.fill(32, {[Saw, Pulse].choose.ar(freq: [5, 5, 6, 1, 13, 6, 1, 6, 13, 0].choose, , Width:, [1.5728, 1.5728, 1.5728, 2, 1, 2, 3, 2, 1, 7].choose, mul: [1.5728, 1.5728, 1.5728, 2, 1, 2, 3, 2, 1, 7].choose))}; Pan2.ar(sourceSignal, 0, 1) * 0.03;}.scope;