{var sourceSignal = Mix.fill(32, {[Saw, Pulse].choose.ar(freq: [5, 5, 13, 6, 13, 1, 11, 0, 13, 6].choose, , Width:, [1.5728, 1.5728, 1.5728, 1, 1, 3, 8, 7, 1, 2].choose, mul: [1.5728, 1.5728, 1.5728, 1, 1, 3, 8, 7, 1, 2].choose))}; Pan2.ar(sourceSignal, 0, 1) * 0.03;}.scope;