{var sourceSignal = Mix.fill(32, {[Saw, Pulse].choose.ar(freq: [5, 5, 13, 5, 10, 6, 0, 11, 13, 6].choose, , Width:, [1.5728, 1.5728, 1.5728, 1, 5, 2, 7, 8, 1, 2].choose, mul: [1.5728, 1.5728, 1.5728, 1, 5, 2, 7, 8, 1, 2].choose))}; Pan2.ar(sourceSignal, 0, 1) * 0.03;}.scope;