{var sourceSignal = Mix.fill(32, {[Saw, Pulse].choose.ar(freq: [5, 13, 13, 13, 10, 0, 6, 6, 10, 11].choose, , Width:, [1.5728, 1.5728, 1, 1, 5, 7, 2, 2, 5, 8].choose, mul: [1.5728, 1.5728, 1, 1, 5, 7, 2, 2, 5, 8].choose))}; Pan2.ar(sourceSignal, 0, 1) * 0.03;}.scope;