{var sourceSignal = Mix.fill(32, {[Saw, Pulse].choose.ar(freq: [5, 13, 13, 1, 5, 10, 6, 10, 0, 4].choose, , Width:, [1.5728, 1.5728, 1, 1, 1.5728, 5, 2, 5, 7, 2.1].choose, mul: [1.5728, 1.5728, 1, 1, 1.5728, 5, 2, 5, 7, 2.1].choose))}; Pan2.ar(sourceSignal, 0, 1) * 0.03;}.scope;