{var sourceSignal = Mix.fill(32, {[Saw, Pulse].choose.ar(freq: [5, 13, 5, 13, 1, 6, 13, 6, 1, 10].choose, , Width:, [1.5728, 1.5728, 1, 1.5728, 3, 2, 1, 2, 3, 5].choose, mul: [1.5728, 1.5728, 1, 1.5728, 3, 2, 1, 2, 3, 5].choose))}; Pan2.ar(sourceSignal, 0, 1) * 0.03;}.scope;