{var sourceSignal = Mix.fill(32, {[Saw, Pulse].choose.ar(freq: [5, 13, 13, 6, 10, 0, 13, 11, 8, 6].choose, , Width:, [1.5728, 1.5728, 1, 1, 5, 7, 1, 8, 1.3, 2].choose, mul: [1.5728, 1.5728, 1, 1, 5, 7, 1, 8, 1.3, 2].choose))}; Pan2.ar(sourceSignal, 0, 1) * 0.03;}.scope;