{var sourceSignal = Mix.fill(32, {[Saw, Pulse].choose.ar(freq: [5, 5, 6, 13, 10, 1, 1, 1, 13, 6].choose, , Width:, [1.5728, 1.5728, 1.5728, 2, 5, 3, 3, 3, 1, 2].choose, mul: [1.5728, 1.5728, 1.5728, 2, 5, 3, 3, 3, 1, 2].choose))}; Pan2.ar(sourceSignal, 0, 1) * 0.03;}.scope;