{var sourceSignal = Mix.fill(32, {[Saw, Pulse].choose.ar(freq: [5, 13, 6, 5, 13, 6, 6, 0, 1, 8].choose, , Width:, [1.5728, 1.5728, 1, 2, 1, 2, 2, 7, 1.1, 1.3].choose, mul: [1.5728, 1.5728, 1, 2, 1, 2, 2, 7, 1.1, 1.3].choose))}; Pan2.ar(sourceSignal, 0, 1) * 0.03;}.scope;