{var sourceSignal = Mix.fill(32, {[Saw, Pulse].choose.ar(freq: [5, 5, 13, 6, 6, 6, 10, 0, 11, 13].choose, , Width:, [1.5728, 1.5728, 1.5728, 1, 2, 2, 5, 7, 8, 1].choose, mul: [1.5728, 1.5728, 1.5728, 1, 2, 2, 5, 7, 8, 1].choose))}; Pan2.ar(sourceSignal, 0, 1) * 0.03;}.scope;