(
play{GVerb.ar(Saw.ar(Select.kr(Hasher.kr(Duty.kr((1..4)/4,0,Dwhite(0,1)))*5,midicps([0,2,4,5,7,11]+57))).sum,200,3)/20};
play{GVerb.ar(Saw.ar(Select.kr(Hasher.kr(Duty.kr((1..4)/4,0,Dwhite(0,1)))*5,midicps([0,2,4,5,7,11]+45))).sum,200,3)/20};
play{GVerb.ar(Saw.ar(Select.kr(Hasher.kr(Duty.kr((1..4)/4,0,Dwhite(0,1)))*5,midicps([0,2,4,5,7,11]+32))).sum,200,3)/20};
play{GVerb.ar(Saw.ar(Select.kr(Hasher.kr(Duty.kr((1..4)/4,0,Dwhite(0,1)))*5,midicps([0,2,4,5,7,11]+69))).sum,200,3)/20};
)

// code found on the internet (I can't write supercollider tweets myself)